X: 5
T: Christmas Eve
R: reel
M: 4/4
L: 1/8
K: Gmaj
D2DE G2GA | B2dB ABGA | ABGE D2DE | GABG ABGE |D2DE G2GA | B2dB ABGA | BAGE DEGB |1 ABGE G2GE :|2 ABGE G2GA ||BGBd edeg | a2ge g2eg | a2ge g2ge | dedB ABGA |BGBd edeg | a2ge g2eg | a2ge d2BG | ABGE G2GA :|BG (3GGG DG(3GGG | eg (3ggg egdc | BG (3GGG DG(3GGG| EA (3AAA EAcA |BG (3GGG DG(3GGG | eggf g2ga| bg (3ggg egdB |1 ABGE G2GA :|2 ABGE G4 ||


Tune 440	Setting 25378

